X: 34470
T: Ridee
R: three-two
M: 3/2
K: Dmajor
|:f|fB f2 ef|gf ed cB|cd ef e2|1 ce dc Bf:|2 ce dc B2||
fB cd B2|gB cd B2|AB cd ed|ce dc cB|
fB cd B2|gB cd B2|AB cd ed|ce dc B2|

